;FLAVOR:Marlin
;TIME:1549
;Filament used: 1.97093m
;Layer height: 0.3
;MINX:111.031
;MINY:91.018
;MINZ:0.15
;MAXX:138.969
;MAXY:118.98
;MAXZ:29.85
;Generated with Cura_SteamEngine 4.6.1
M82 ;absolute extrusion mode
G21 ; set units to millimeters
G90 ; use absolute positioning
M82 ; absolute extrusion mode
M104 S196 ; set extruder temp
M140 S45 ; set bed temp
M190 S45 ; wait for bed temp
M109 S196 ; wait for extruder temp
G28 W ; home all without mesh bed level
G80 ; mesh bed leveling
G92 E0.0 ; reset extruder distance position
G1 Y-3.0 F1000.0 ; go outside print area
G1 X60.0 E9.0 F1000.0 ; intro line
G1 X100.0 E21.5 F1000.0 ; intro line
G92 E0.0 ; reset extruder distance position
G92 E0
G92 E0
G1 F2100 E-0.8
;LAYER_COUNT:100
;LAYER:0
M107
G0 F3300 X126.334 Y91.877 Z0.15
;TYPE:SKIRT
G1 F2100 E0
G1 F1800 X127.28 Y92.012 E0.02384
G1 X128.363 Y92.254 E0.05152
G1 X128.902 Y92.4 E0.06545
G1 X129.762 Y92.704 E0.0882
G1 X130.81 Y93.167 E0.11678
G1 X131.923 Y93.782 E0.1485
G1 X132.35 Y94.049 E0.16107
G1 X132.767 Y94.342 E0.17378
G1 X133.296 Y94.755 E0.19052
G1 X133.961 Y95.333 E0.2125
G1 X134.881 Y96.276 E0.24536
G1 X135.649 Y97.232 E0.27595
G1 X136.01 Y97.737 E0.29144
G1 X136.49 Y98.533 E0.31462
G1 X136.972 Y99.484 E0.34122
G1 X137.204 Y99.997 E0.35526
G1 X137.542 Y100.935 E0.38014
G1 X137.814 Y101.907 E0.40531
G1 X137.946 Y102.474 E0.41984
G1 X138.09 Y103.43 E0.44395
G1 X138.171 Y104.508 E0.47092
G1 X138.158 Y105.786 E0.5028
G1 X138.135 Y106.112 E0.51095
G1 X138.014 Y107.095 E0.53566
G1 X137.923 Y107.641 E0.54947
G1 X137.685 Y108.594 E0.57397
G1 X137.372 Y109.552 E0.59911
G1 X137.165 Y110.1 E0.61372
G1 X136.753 Y110.977 E0.63789
G1 X136.234 Y111.896 E0.66422
G1 X135.947 Y112.358 E0.67779
G1 X135.373 Y113.14 E0.70199
G1 X134.667 Y113.961 E0.729
G1 X133.736 Y114.87 E0.76146
G1 X132.734 Y115.674 E0.7935
G1 X132.276 Y116.001 E0.80754
G1 X131.474 Y116.487 E0.83093
G1 X130.495 Y116.981 E0.85829
G1 X129.288 Y117.463 E0.89071
G1 X128.043 Y117.826 E0.92306
G1 X127.505 Y117.951 E0.93684
G1 X126.557 Y118.092 E0.96074
G1 X125.483 Y118.173 E0.98761
G1 X124.186 Y118.156 E1.01997
G1 X122.919 Y118.016 E1.05176
G1 X121.632 Y117.743 E1.08458
G1 X120.431 Y117.365 E1.11599
G1 X119.899 Y117.164 E1.13018
G1 X119.027 Y116.755 E1.1542
G1 X118.092 Y116.227 E1.18099
G1 X117.644 Y115.947 E1.19417
G1 X116.859 Y115.372 E1.21844
G1 X116.038 Y114.666 E1.24545
G1 X115.136 Y113.742 E1.27766
G1 X114.341 Y112.754 E1.3093
G1 X113.98 Y112.248 E1.3248
G1 X113.509 Y111.464 E1.34762
G1 X113.028 Y110.516 E1.37413
G1 X112.789 Y109.986 E1.38864
G1 X112.458 Y109.067 E1.413
G1 X112.186 Y108.092 E1.43825
G1 X112.054 Y107.526 E1.45275
G1 X111.91 Y106.564 E1.47702
G1 X111.829 Y105.493 E1.50381
G1 X111.842 Y104.214 E1.53571
G1 X111.877 Y103.683 E1.54899
G1 X112.014 Y102.72 E1.57325
G1 X112.26 Y101.619 E1.6014
G1 X112.635 Y100.431 E1.63247
G1 X112.84 Y99.888 E1.64695
G1 X113.247 Y99.023 E1.6708
G1 X113.774 Y98.089 E1.69755
G1 X114.052 Y97.644 E1.71064
G1 X114.626 Y96.861 E1.73485
G1 X115.343 Y96.028 E1.76227
G1 X116.266 Y95.128 E1.79443
G1 X117.237 Y94.348 E1.8255
G1 X117.721 Y94.001 E1.84035
G1 X118.525 Y93.515 E1.86379
G1 X119.514 Y93.014 E1.89145
G1 X120.699 Y92.54 E1.92328
G1 X121.23 Y92.361 E1.93726
G1 X122.158 Y92.124 E1.96115
G1 X123.195 Y91.943 E1.98741
G1 X123.777 Y91.867 E2.00205
G1 X124.72 Y91.818 E2.02561
G1 X125.815 Y91.842 E2.05293
G1 X126.334 Y91.877 E2.06591
G0 F3300 X126.381 Y91.48
G1 F1800 X126.888 Y91.543 E2.07865
G1 X127.572 Y91.662 E2.09597
G1 X128.452 Y91.864 E2.11849
G1 X129.027 Y92.02 E2.13335
G1 X129.902 Y92.329 E2.1565
G1 X130.974 Y92.802 E2.18573
G1 X132.121 Y93.434 E2.2184
G1 X132.578 Y93.72 E2.23185
G1 X133.01 Y94.024 E2.24502
G1 X133.559 Y94.453 E2.2624
G1 X134.224 Y95.031 E2.28438
G1 X135.17 Y95.999 E2.31814
G1 X135.964 Y96.986 E2.34974
G1 X136.347 Y97.521 E2.36616
G1 X136.836 Y98.332 E2.38978
G1 X137.33 Y99.305 E2.417
G1 X137.576 Y99.85 E2.43192
G1 X137.921 Y100.806 E2.45727
G1 X138.2 Y101.802 E2.48307
G1 X138.34 Y102.405 E2.49851
G1 X138.487 Y103.378 E2.52306
G1 X138.57 Y104.48 E2.55063
G1 X138.558 Y105.794 E2.58341
G1 X138.532 Y106.161 E2.59258
G1 X138.411 Y107.144 E2.61729
G1 X138.313 Y107.728 E2.63206
G1 X138.071 Y108.697 E2.65698
G1 X137.752 Y109.678 E2.68271
G1 X137.531 Y110.261 E2.69826
G1 X137.112 Y111.154 E2.72287
G1 X136.582 Y112.095 E2.74981
G1 X136.275 Y112.587 E2.76427
G1 X135.692 Y113.382 E2.78887
G1 X134.969 Y114.224 E2.81655
G1 X134.013 Y115.159 E2.84991
G1 X133.743 Y115.393 E2.85882
G1 X132.981 Y115.989 E2.88295
G1 X132.491 Y116.338 E2.89796
G1 X132.068 Y116.605 E2.91044
G1 X131.476 Y116.939 E2.92739
G1 X130.673 Y117.339 E2.94977
G1 X129.433 Y117.836 E2.9831
G1 X129.099 Y117.947 E2.99188
G1 X128.151 Y118.211 E3.01642
G1 X127.574 Y118.345 E3.0312
G1 X126.609 Y118.488 E3.05553
G1 X125.511 Y118.572 E3.083
G1 X124.176 Y118.556 E3.11631
G1 X122.87 Y118.413 E3.14908
G1 X122.518 Y118.352 E3.15799
G1 X121.544 Y118.133 E3.1829
G1 X120.307 Y117.745 E3.21524
G1 X119.739 Y117.531 E3.23038
G1 X118.851 Y117.114 E3.25485
G1 X117.893 Y116.574 E3.28228
G1 X117.415 Y116.275 E3.29635
G1 X117.001 Y115.983 E3.30898
G1 X116.432 Y115.54 E3.32697
G1 X115.775 Y114.968 E3.3487
G1 X114.846 Y114.018 E3.38185
G1 X114.617 Y113.754 E3.39056
G1 X114.026 Y113.001 E3.41444
G1 X113.642 Y112.463 E3.43093
G1 X113.163 Y111.665 E3.45415
G1 X112.67 Y110.695 E3.48129
G1 X112.417 Y110.132 E3.49669
G1 X112.08 Y109.197 E3.52148
G1 X111.8 Y108.197 E3.54738
G1 X111.66 Y107.595 E3.5628
G1 X111.513 Y106.617 E3.58747
G1 X111.43 Y105.52 E3.61492
G1 X111.442 Y104.206 E3.64769
G1 X111.479 Y103.638 E3.66189
G1 X111.541 Y103.131 E3.67463
G1 X111.663 Y102.433 E3.69231
G1 X111.87 Y101.53 E3.71542
G1 X112.255 Y100.307 E3.7474
G1 X112.473 Y99.727 E3.76286
G1 X112.888 Y98.846 E3.78715
G1 X113.427 Y97.89 E3.81453
G1 X113.724 Y97.416 E3.82848
G1 X114.021 Y96.994 E3.84136
G1 X114.455 Y96.438 E3.85895
G1 X115.041 Y95.765 E3.88121
G1 X115.99 Y94.838 E3.9143
G1 X116.99 Y94.033 E3.94633
G1 X117.505 Y93.665 E3.96212
G1 X118.325 Y93.168 E3.98603
G1 X119.335 Y92.656 E4.01428
G1 X120.555 Y92.167 E4.04707
G1 X121.121 Y91.977 E4.06196
G1 X122.066 Y91.735 E4.0863
G1 X123.128 Y91.548 E4.11319
G1 X123.745 Y91.468 E4.12871
G1 X124.706 Y91.418 E4.15272
G1 X125.827 Y91.442 E4.18069
G1 X126.381 Y91.48 E4.19454
G0 F3300 X126.428 Y91.083
G1 F1800 X126.952 Y91.149 E4.20772
G1 X127.662 Y91.272 E4.22569
G1 X128.542 Y91.474 E4.24821
G1 X129.151 Y91.64 E4.26396
G1 X130.041 Y91.954 E4.2875
G1 X131.138 Y92.437 E4.3174
G1 X131.474 Y92.607 E4.32679
G1 X132.318 Y93.086 E4.351
G1 X132.806 Y93.391 E4.36536
G1 X133.253 Y93.707 E4.37901
G1 X133.821 Y94.151 E4.397
G1 X134.486 Y94.729 E4.41898
G1 X135.459 Y95.723 E4.45367
G1 X135.716 Y96.02 E4.46347
G1 X136.279 Y96.739 E4.48625
G1 X136.684 Y97.306 E4.50363
G1 X137.182 Y98.131 E4.52767
G1 X137.688 Y99.126 E4.55552
G1 X137.948 Y99.703 E4.5713
G1 X138.3 Y100.677 E4.59714
G1 X138.586 Y101.697 E4.62356
G1 X138.734 Y102.335 E4.6399
G1 X138.883 Y103.325 E4.66487
G1 X138.969 Y104.453 E4.69309
G1 X138.958 Y105.802 E4.72675
G1 X138.929 Y106.21 E4.73695
G1 X138.808 Y107.193 E4.76166
G1 X138.704 Y107.815 E4.77739
G1 X138.458 Y108.8 E4.80271
G1 X138.131 Y109.804 E4.82905
G1 X137.898 Y110.421 E4.8455
G1 X137.471 Y111.33 E4.87056
G1 X136.929 Y112.294 E4.89814
G1 X136.603 Y112.816 E4.9135
G1 X136.308 Y113.232 E4.92622
G1 X135.843 Y113.83 E4.94511
G1 X135.271 Y114.487 E4.96684
G1 X134.289 Y115.448 E5.00112
G1 X133.989 Y115.708 E5.01102
G1 X133.227 Y116.304 E5.03515
G1 X132.707 Y116.675 E5.05109
G1 X132.268 Y116.951 E5.06402
G1 X131.655 Y117.297 E5.08158
G1 X130.852 Y117.697 E5.10396
G1 X129.577 Y118.209 E5.13823
G1 X129.206 Y118.332 E5.14798
G1 X128.258 Y118.596 E5.17253
G1 X127.643 Y118.739 E5.18828
G1 X126.662 Y118.885 E5.21302
G1 X125.539 Y118.971 E5.24112
G1 X125.162 Y118.98 E5.25052
G1 X124.167 Y118.956 E5.27535
G1 X123.777 Y118.927 E5.28511
G1 X122.822 Y118.81 E5.30911
G1 X122.431 Y118.743 E5.319
G1 X121.457 Y118.524 E5.34391
G1 X121.089 Y118.422 E5.35343
G1 X120.182 Y118.125 E5.37724
G1 X119.579 Y117.897 E5.39332
G1 X118.674 Y117.473 E5.41825
G1 X117.694 Y116.921 E5.44631
G1 X117.186 Y116.603 E5.46126
G1 X116.759 Y116.301 E5.47431
G1 X116.169 Y115.842 E5.49295
G1 X115.512 Y115.27 E5.51468
G1 X114.557 Y114.295 E5.54873
G1 X114.302 Y114.001 E5.55844
G1 X113.711 Y113.248 E5.58231
G1 X113.305 Y112.678 E5.59977
G1 X112.817 Y111.866 E5.6234
G1 X112.312 Y110.874 E5.65117
G1 X112.044 Y110.278 E5.66747
G1 X111.701 Y109.326 E5.69271
G1 X111.414 Y108.302 E5.71924
G1 X111.266 Y107.665 E5.73555
G1 X111.116 Y106.669 E5.76068
G1 X111.031 Y105.548 E5.78872
G1 X111.042 Y104.198 E5.8224
G1 X111.082 Y103.592 E5.83755
G1 X111.147 Y103.066 E5.85077
G1 X111.273 Y102.343 E5.86908
G1 X111.48 Y101.44 E5.89219
G1 X111.875 Y100.182 E5.92508
G1 X112.107 Y99.567 E5.94148
G1 X112.529 Y98.67 E5.9662
G1 X113.08 Y97.691 E5.99423
G1 X113.395 Y97.187 E6.00905
G1 X113.703 Y96.751 E6.02237
G1 X114.153 Y96.175 E6.0406
G1 X114.739 Y95.502 E6.06286
G1 X115.714 Y94.549 E6.09687
G1 X116.007 Y94.295 E6.10655
G1 X116.743 Y93.718 E6.12988
G1 X117.289 Y93.328 E6.14661
G1 X117.722 Y93.055 E6.15938
G1 X118.338 Y92.707 E6.17703
G1 X119.156 Y92.298 E6.19984
G1 X119.503 Y92.145 E6.2093
G1 X120.411 Y91.794 E6.23359
G1 X121.013 Y91.592 E6.24943
G1 X121.974 Y91.346 E6.27417
G1 X123.062 Y91.154 E6.30173
G1 X123.714 Y91.07 E6.31813
G1 X124.691 Y91.018 E6.34254
G1 X125.838 Y91.043 E6.37116
G1 X126.428 Y91.083 E6.38591
G1 F2100 E5.58591
;MESH:Stunning Kieran.stl
G0 F3300 X126.108 Y94.394
G0 X125.92 Y95.665
G0 X126.822 Y95.881
G0 X126.841 Y95.783
;TYPE:WALL-INNER
G1 F2100 E6.38591
G1 F1800 X127.724 Y96.003 E6.40861
G1 X128.594 Y96.315 E6.43166
G1 X129.43 Y96.71 E6.45473
G1 X130.219 Y97.182 E6.47766
G1 X130.965 Y97.737 E6.50086
G1 X131.647 Y98.353 E6.52378
G1 X132.257 Y99.028 E6.54648
G1 X132.818 Y99.781 E6.5699
G1 X133.283 Y100.558 E6.59249
G1 X133.687 Y101.41 E6.61601
G1 X133.989 Y102.258 E6.63846
G1 X134.218 Y103.165 E6.6618
G1 X134.352 Y104.068 E6.68457
G1 X134.398 Y104.997 E6.70777
G1 X134.353 Y105.925 E6.73095
G1 X134.221 Y106.827 E6.75369
G1 X133.993 Y107.732 E6.77697
G1 X133.688 Y108.591 E6.79971
G1 X133.293 Y109.424 E6.82271
G1 X132.819 Y110.217 E6.84575
G1 X132.263 Y110.965 E6.869
G1 X131.649 Y111.643 E6.89182
G1 X130.968 Y112.261 E6.91476
G1 X130.223 Y112.815 E6.93792
G1 X129.432 Y113.288 E6.96091
G1 X128.602 Y113.681 E6.98382
G1 X127.729 Y113.994 E7.00695
G1 X126.837 Y114.218 E7.02989
G1 X125.918 Y114.353 E7.05306
G1 X125.01 Y114.399 E7.07574
G1 X124.076 Y114.353 E7.09907
G1 X123.162 Y114.217 E7.12212
G1 X122.268 Y113.993 E7.14511
G1 X121.407 Y113.687 E7.1679
G1 X120.574 Y113.292 E7.1909
G1 X119.78 Y112.817 E7.21398
G1 X119.032 Y112.261 E7.23723
G1 X118.356 Y111.65 E7.25996
G1 X117.742 Y110.971 E7.2828
G1 X117.183 Y110.219 E7.30617
G1 X116.712 Y109.432 E7.32905
G1 X116.314 Y108.594 E7.35219
G1 X116.01 Y107.738 E7.37485
G1 X115.782 Y106.834 E7.39811
G1 X115.648 Y105.928 E7.42095
G1 X115.602 Y104.997 E7.44421
G1 X115.647 Y104.076 E7.46721
G1 X115.783 Y103.162 E7.49026
G1 X116.008 Y102.264 E7.51335
G1 X116.312 Y101.409 E7.53599
G1 X116.71 Y100.571 E7.55913
G1 X117.184 Y99.778 E7.58218
G1 X117.735 Y99.036 E7.60523
G1 X118.353 Y98.353 E7.62821
G1 X119.035 Y97.737 E7.65113
G1 X119.768 Y97.191 E7.67393
G1 X120.572 Y96.71 E7.6973
G1 X121.403 Y96.317 E7.72023
G1 X122.273 Y96.005 E7.74329
G1 X123.155 Y95.785 E7.76596
G1 X124.078 Y95.647 E7.78924
G1 X125 Y95.601 E7.81227
G1 X125.921 Y95.646 E7.83527
G1 X126.841 Y95.783 E7.85848
G0 F3300 X126.915 Y95.389
;TYPE:WALL-OUTER
G1 F1800 X127.845 Y95.621 E7.88239
G1 X128.747 Y95.944 E7.90629
G1 X129.612 Y96.353 E7.93015
G1 X130.447 Y96.853 E7.95443
G1 X131.218 Y97.426 E7.97839
G1 X131.93 Y98.07 E8.00234
G1 X132.568 Y98.775 E8.02606
G1 X133.147 Y99.553 E8.05025
G1 X133.637 Y100.372 E8.07406
G1 X134.058 Y101.259 E8.09855
G1 X134.373 Y102.143 E8.12196
G1 X134.611 Y103.088 E8.14627
G1 X134.751 Y104.03 E8.17003
G1 X134.799 Y104.997 E8.19418
G1 X134.752 Y105.962 E8.21828
G1 X134.614 Y106.902 E8.24198
G1 X134.376 Y107.85 E8.26636
G1 X134.06 Y108.738 E8.28987
G1 X133.645 Y109.614 E8.31405
G1 X133.149 Y110.444 E8.33817
G1 X132.574 Y111.218 E8.36223
G1 X131.933 Y111.926 E8.38605
G1 X131.221 Y112.572 E8.41003
G1 X130.45 Y113.145 E8.43399
G1 X129.622 Y113.64 E8.45806
G1 X128.746 Y114.055 E8.48224
G1 X127.85 Y114.376 E8.50598
G1 X126.912 Y114.611 E8.5301
G1 X125.965 Y114.751 E8.55398
G1 X125 Y114.8 E8.57809
G1 X124.038 Y114.752 E8.60211
G1 X123.088 Y114.611 E8.62607
G1 X122.15 Y114.376 E8.65019
G1 X121.26 Y114.059 E8.67376
G1 X120.384 Y113.644 E8.69794
G1 X119.553 Y113.147 E8.72209
G1 X118.779 Y112.572 E8.74614
G1 X118.073 Y111.933 E8.7699
G1 X117.431 Y111.224 E8.79376
G1 X116.853 Y110.447 E8.81791
G1 X116.36 Y109.622 E8.84189
G1 X115.942 Y108.741 E8.86621
G1 X115.626 Y107.853 E8.88973
G1 X115.389 Y106.912 E8.91393
G1 X115.249 Y105.965 E8.93781
G1 X115.201 Y105.003 E8.96184
G1 X115.248 Y104.038 E8.98594
G1 X115.389 Y103.088 E9.0099
G1 X115.625 Y102.146 E9.03412
G1 X115.94 Y101.262 E9.05753
G1 X116.358 Y100.381 E9.08186
G1 X116.851 Y99.556 E9.10583
G1 X117.428 Y98.779 E9.12997
G1 X118.07 Y98.07 E9.15383
G1 X118.782 Y97.426 E9.17778
G1 X119.544 Y96.859 E9.20147
G1 X120.385 Y96.355 E9.22593
G1 X121.25 Y95.946 E9.2498
G1 X122.152 Y95.623 E9.2737
G1 X123.081 Y95.391 E9.29758
G1 X124.04 Y95.248 E9.32177
G1 X125 Y95.2 E9.34575
G1 X125.959 Y95.247 E9.3697
G1 X126.915 Y95.389 E9.39381
G0 F3300 X127.109 Y95.437
G0 X126.772 Y96.167
;TYPE:SKIN
G1 F1800 X127.606 Y96.375 E9.41525
G1 X128.444 Y96.676 E9.43746
G1 X129.241 Y97.052 E9.45944
G1 X130.018 Y97.517 E9.48203
G1 X130.713 Y98.034 E9.50364
G1 X131.372 Y98.628 E9.52577
G1 X131.959 Y99.278 E9.54762
G1 X132.483 Y99.982 E9.56951
G1 X132.938 Y100.743 E9.59163
G1 X133.331 Y101.572 E9.61451
G1 X133.616 Y102.371 E9.63567
G1 X133.834 Y103.237 E9.65795
G1 X133.962 Y104.103 E9.67979
G1 X134.008 Y104.998 E9.70214
G1 X133.963 Y105.892 E9.72447
G1 X133.838 Y106.749 E9.74608
G1 X133.621 Y107.615 E9.76835
G1 X133.331 Y108.432 E9.78997
G1 X132.949 Y109.238 E9.81222
G1 X132.492 Y110.005 E9.83449
G1 X131.961 Y110.719 E9.85669
G1 X131.38 Y111.361 E9.87829
G1 X130.711 Y111.967 E9.90081
G1 X130.017 Y112.484 E9.92239
G1 X129.251 Y112.941 E9.94464
G1 X128.445 Y113.323 E9.96689
G1 X127.617 Y113.62 E9.98884
G1 X126.765 Y113.834 E10.01075
G1 X125.883 Y113.963 E10.03299
G1 X125.01 Y114.008 E10.05479
G1 X124.111 Y113.963 E10.07725
G1 X123.234 Y113.833 E10.09936
G1 X122.38 Y113.619 E10.12132
G1 X121.564 Y113.329 E10.14293
G1 X120.755 Y112.945 E10.16526
G1 X119.999 Y112.494 E10.18722
G1 X119.271 Y111.953 E10.20985
G1 X118.631 Y111.375 E10.23136
G1 X118.044 Y110.725 E10.25321
G1 X117.513 Y110.011 E10.27541
G1 X117.056 Y109.246 E10.29763
G1 X116.671 Y108.435 E10.32003
G1 X116.381 Y107.619 E10.34163
G1 X116.166 Y106.762 E10.36367
G1 X116.038 Y105.893 E10.38558
G1 X115.992 Y104.996 E10.40799
G1 X116.037 Y104.111 E10.43009
G1 X116.168 Y103.227 E10.45238
G1 X116.381 Y102.377 E10.47424
G1 X116.667 Y101.572 E10.49555
G1 X117.059 Y100.748 E10.51832
G1 X117.505 Y100 E10.54004
G1 X118.043 Y99.276 E10.56254
G1 X118.628 Y98.628 E10.58432
G1 X119.283 Y98.039 E10.60629
G1 X119.975 Y97.522 E10.62784
G1 X120.757 Y97.055 E10.65056
G1 X121.557 Y96.676 E10.67264
G1 X122.391 Y96.377 E10.69474
G1 X123.223 Y96.169 E10.71614
G1 X124.115 Y96.037 E10.73863
G1 X125.001 Y95.991 E10.76076
G1 X125.886 Y96.036 E10.78287
G1 X126.772 Y96.167 E10.80521
G0 F3300 X132.342 Y100.098
G1 F1800 X129.901 Y97.657 E10.89132
G1 X129.831 Y97.587
G0 F3300 X128.652 Y96.974
