;FLAVOR:Marlin
;TIME:240
;Filament used: 0.206888m
;Layer height: 0.2
;MINX:113.968
;MINY:93.968
;MINZ:0.15
;MAXX:136.032
;MAXY:116.021
;MAXZ:3.95
;Generated with Cura_SteamEngine 4.6.1
M82 ;absolute extrusion mode
G21 ; set units to millimeters
G90 ; use absolute positioning
M82 ; absolute extrusion mode
M104 S196 ; set extruder temp
M140 S45 ; set bed temp
M190 S45 ; wait for bed temp
M109 S196 ; wait for extruder temp
G28 W ; home all without mesh bed level
G80 ; mesh bed leveling
G92 E0.0 ; reset extruder distance position
G1 Y-3.0 F1000.0 ; go outside print area
G1 X60.0 E9.0 F1000.0 ; intro line
G1 X100.0 E21.5 F1000.0 ; intro line
G92 E0.0 ; reset extruder distance position
G92 E0
G92 E0
G1 F2100 E-0.8
;LAYER_COUNT:20
;LAYER:0
M107
G0 F3300 X126.11 Y95.224 Z0.15
;TYPE:SKIRT
G1 F2100 E0
G1 F1800 X126.634 Y95.301 E0.01321
G1 X127.471 Y95.484 E0.03458
G1 X128.417 Y95.782 E0.05933
G1 X129.371 Y96.191 E0.08522
G1 X129.862 Y96.448 E0.09904
G1 X130.369 Y96.762 E0.11392
G1 X131.028 Y97.229 E0.13407
G1 X131.448 Y97.569 E0.14755
G1 X131.914 Y98.008 E0.16352
G1 X132.382 Y98.503 E0.18051
G1 X132.749 Y98.939 E0.19473
G1 X133.141 Y99.485 E0.21149
G1 X133.485 Y100.034 E0.22765
G1 X133.933 Y100.897 E0.25191
G1 X134.294 Y101.797 E0.2761
G1 X134.568 Y102.743 E0.30067
G1 X134.741 Y103.669 E0.32416
G1 X134.826 Y104.659 E0.34895
G1 X134.815 Y105.62 E0.37292
G1 X134.769 Y106.169 E0.38667
G1 X134.662 Y106.824 E0.40322
G1 X134.5 Y107.541 E0.42156
G1 X134.352 Y108.054 E0.43488
G1 X134.132 Y108.66 E0.45096
G1 X133.926 Y109.139 E0.46397
G1 X133.726 Y109.533 E0.47499
G1 X133.362 Y110.17 E0.49329
G1 X132.782 Y111.014 E0.51884
G1 X132.445 Y111.433 E0.53225
G1 X131.994 Y111.912 E0.54866
G1 X131.5 Y112.38 E0.56564
G1 X131.061 Y112.749 E0.57994
G1 X130.518 Y113.139 E0.59662
G1 X129.921 Y113.514 E0.61421
G1 X129.435 Y113.782 E0.62805
G1 X128.833 Y114.056 E0.64455
G1 X128.19 Y114.302 E0.66172
G1 X127.705 Y114.459 E0.67444
G1 X127.187 Y114.59 E0.68777
G1 X126.326 Y114.741 E0.70957
G1 X125.355 Y114.824 E0.73388
G1 X124.411 Y114.814 E0.75743
G1 X123.418 Y114.703 E0.78236
G1 X122.501 Y114.508 E0.80574
G1 X121.578 Y114.216 E0.82989
G1 X120.695 Y113.838 E0.85385
G1 X119.83 Y113.362 E0.87848
G1 X118.985 Y112.781 E0.90406
G1 X118.557 Y112.435 E0.91779
G1 X118.086 Y111.992 E0.93392
G1 X117.618 Y111.497 E0.95091
G1 X117.251 Y111.061 E0.96513
G1 X116.855 Y110.508 E0.9821
G1 X116.513 Y109.961 E0.99819
G1 X116.063 Y109.095 E1.02253
G1 X115.705 Y108.199 E1.0466
G1 X115.432 Y107.257 E1.07107
G1 X115.259 Y106.327 E1.09466
G1 X115.174 Y105.341 E1.11935
G1 X115.185 Y104.38 E1.14332
G1 X115.232 Y103.821 E1.15732
G1 X115.339 Y103.166 E1.17387
G1 X115.492 Y102.499 E1.19094
G1 X115.783 Y101.578 E1.21504
G1 X116.161 Y100.697 E1.23895
G1 X116.637 Y99.83 E1.26362
G1 X117.219 Y98.985 E1.28922
G1 X117.569 Y98.552 E1.30311
G1 X118.007 Y98.088 E1.31902
G1 X118.47 Y97.651 E1.33491
G1 X119.225 Y97.044 E1.35907
G1 X120.027 Y96.52 E1.38297
G1 X120.889 Y96.071 E1.40721
G1 X121.78 Y95.712 E1.43118
G1 X122.812 Y95.413 E1.45798
G1 X123.321 Y95.306 E1.47095
G1 X123.963 Y95.223 E1.4871
G1 X124.64 Y95.175 E1.50403
G1 X124.939 Y95.168 E1.51149
G1 X125.55 Y95.182 E1.52674
G1 X126.11 Y95.224 E1.54075
G0 F3300 X126.145 Y94.826
G1 F1800 X126.699 Y94.906 E1.55471
G1 X127.559 Y95.094 E1.57667
G1 X128.543 Y95.402 E1.60239
G1 X129.535 Y95.826 E1.6293
G1 X130.055 Y96.097 E1.64393
G1 X130.6 Y96.436 E1.65994
G1 X131.259 Y96.903 E1.68009
G1 X131.706 Y97.263 E1.6944
G1 X132.205 Y97.733 E1.7115
G1 X132.673 Y98.228 E1.7285
G1 X133.059 Y98.686 E1.74344
G1 X133.48 Y99.273 E1.76146
G1 X133.824 Y99.822 E1.77762
G1 X134.291 Y100.718 E1.80282
G1 X134.667 Y101.655 E1.82801
G1 X134.954 Y102.637 E1.85353
G1 X135.135 Y103.603 E1.87804
G1 X135.225 Y104.631 E1.90379
G1 X135.215 Y105.631 E1.92873
G1 X135.167 Y106.208 E1.94318
G1 X135.052 Y106.912 E1.96097
G1 X134.89 Y107.629 E1.97931
G1 X134.735 Y108.172 E1.99339
G1 X134.507 Y108.8 E2.01006
G1 X134.285 Y109.315 E2.02405
G1 X134.074 Y109.731 E2.03568
G1 X133.71 Y110.368 E2.05398
G1 X133.109 Y111.245 E2.08051
G1 X132.751 Y111.69 E2.09475
G1 X132.269 Y112.202 E2.11229
G1 X131.775 Y112.67 E2.12927
G1 X131.314 Y113.059 E2.14432
G1 X130.731 Y113.477 E2.16221
G1 X130.134 Y113.852 E2.1798
G1 X129.623 Y114.135 E2.19437
G1 X128.976 Y114.429 E2.2121
G1 X128.333 Y114.675 E2.22927
G1 X127.824 Y114.841 E2.24262
G1 X127.279 Y114.979 E2.25665
G1 X126.392 Y115.136 E2.27912
G1 X125.383 Y115.223 E2.30438
G1 X124.4 Y115.214 E2.3289
G1 X123.367 Y115.1 E2.35483
G1 X122.412 Y114.898 E2.37918
G1 X121.451 Y114.596 E2.40431
G1 X120.532 Y114.204 E2.42923
G1 X119.632 Y113.71 E2.45484
G1 X118.753 Y113.108 E2.48142
G1 X118.299 Y112.741 E2.49598
G1 X117.795 Y112.267 E2.51324
G1 X117.327 Y111.772 E2.53023
G1 X116.941 Y111.314 E2.54517
G1 X116.516 Y110.72 E2.56339
G1 X116.174 Y110.173 E2.57948
G1 X115.705 Y109.274 E2.60478
G1 X115.331 Y108.341 E2.62985
G1 X115.046 Y107.363 E2.65526
G1 X114.865 Y106.394 E2.67985
G1 X114.775 Y105.37 E2.70549
G1 X114.785 Y104.369 E2.73047
G1 X114.834 Y103.782 E2.74516
G1 X114.949 Y103.076 E2.763
G1 X115.102 Y102.409 E2.78007
G1 X115.404 Y101.452 E2.80511
G1 X115.795 Y100.534 E2.83
G1 X116.29 Y99.632 E2.85566
G1 X116.892 Y98.753 E2.88224
G1 X117.264 Y98.294 E2.89698
G1 X117.732 Y97.797 E2.91401
G1 X118.195 Y97.36 E2.92989
G1 X118.979 Y96.729 E2.95499
G1 X119.813 Y96.182 E2.97987
G1 X120.71 Y95.713 E3.00512
G1 X121.636 Y95.339 E3.03003
G1 X122.707 Y95.027 E3.05786
G1 X123.247 Y94.913 E3.07163
G1 X123.934 Y94.824 E3.08891
G1 X124.611 Y94.776 E3.10584
G1 X124.948 Y94.768 E3.11425
G1 X125.559 Y94.782 E3.12949
G1 X126.145 Y94.826 E3.14415
G0 F3300 X126.18 Y94.427
G1 F1800 X126.763 Y94.511 E3.15884
G1 X127.648 Y94.704 E3.18144
G1 X128.668 Y95.022 E3.20809
G1 X129.045 Y95.168 E3.21818
G1 X129.698 Y95.46 E3.23602
G1 X130.247 Y95.747 E3.25147
G1 X130.832 Y96.109 E3.26863
G1 X131.491 Y96.576 E3.28878
G1 X131.964 Y96.958 E3.30395
G1 X132.496 Y97.458 E3.32216
G1 X132.964 Y97.953 E3.33915
G1 X133.369 Y98.433 E3.35482
G1 X133.679 Y98.852 E3.36782
G1 X134.163 Y99.609 E3.39023
G1 X134.649 Y100.539 E3.41641
G1 X135.041 Y101.512 E3.44258
G1 X135.34 Y102.532 E3.46909
G1 X135.427 Y102.924 E3.47911
G1 X135.53 Y103.536 E3.49459
G1 X135.624 Y104.602 E3.52128
G1 X135.614 Y105.642 E3.54723
G1 X135.565 Y106.247 E3.56237
G1 X135.489 Y106.764 E3.5754
G1 X135.281 Y107.718 E3.59976
G1 X135.117 Y108.289 E3.61458
G1 X134.882 Y108.939 E3.63182
G1 X134.645 Y109.49 E3.64678
G1 X134.421 Y109.93 E3.6591
G1 X134.057 Y110.567 E3.6774
G1 X133.435 Y111.477 E3.7049
G1 X133.057 Y111.947 E3.71994
G1 X132.709 Y112.327 E3.7328
G1 X132.05 Y112.961 E3.75561
G1 X131.567 Y113.369 E3.77138
G1 X131.148 Y113.679 E3.78438
G1 X130.347 Y114.191 E3.8081
G1 X129.811 Y114.488 E3.82338
G1 X129.344 Y114.709 E3.83627
G1 X128.476 Y115.049 E3.85952
G1 X127.943 Y115.223 E3.87351
G1 X127.371 Y115.368 E3.88823
G1 X126.459 Y115.53 E3.91134
G1 X125.411 Y115.622 E3.93758
G1 X124.39 Y115.614 E3.96305
G1 X123.317 Y115.497 E3.98997
G1 X122.322 Y115.288 E4.01534
G1 X121.325 Y114.975 E4.0414
G1 X120.953 Y114.831 E4.05135
G1 X120.368 Y114.569 E4.06734
G1 X119.433 Y114.057 E4.09393
G1 X118.522 Y113.434 E4.12147
G1 X118.041 Y113.047 E4.13687
G1 X117.504 Y112.542 E4.15525
G1 X117.036 Y112.047 E4.17225
G1 X116.631 Y111.567 E4.18791
G1 X116.319 Y111.145 E4.201
G1 X115.834 Y110.386 E4.22347
G1 X115.347 Y109.453 E4.24973
G1 X114.957 Y108.483 E4.27581
G1 X114.66 Y107.468 E4.30219
G1 X114.573 Y107.074 E4.31225
G1 X114.47 Y106.46 E4.32778
G1 X114.376 Y105.398 E4.35438
G1 X114.386 Y104.358 E4.38032
G1 X114.436 Y103.743 E4.39571
G1 X114.509 Y103.244 E4.40829
G1 X114.712 Y102.32 E4.43189
G1 X115.024 Y101.325 E4.4579
G1 X115.43 Y100.37 E4.48379
G1 X115.943 Y99.434 E4.51042
G1 X116.155 Y99.101 E4.52026
G1 X116.566 Y98.522 E4.53798
G1 X116.959 Y98.035 E4.55359
G1 X117.457 Y97.506 E4.57171
G1 X117.92 Y97.069 E4.58759
G1 X118.733 Y96.413 E4.61365
G1 X119.6 Y95.843 E4.63953
G1 X120.531 Y95.356 E4.66574
G1 X120.886 Y95.198 E4.67544
G1 X121.492 Y94.965 E4.69163
G1 X121.871 Y94.841 E4.70158
G1 X122.601 Y94.641 E4.72046
G1 X123.173 Y94.52 E4.73504
G1 X123.672 Y94.449 E4.74762
G1 X124.583 Y94.377 E4.77041
G1 X124.958 Y94.368 E4.77977
G1 X125.569 Y94.382 E4.79501
G1 X126.18 Y94.427 E4.8103
G0 F3300 X126.215 Y94.029
G1 F1800 X126.828 Y94.116 E4.82574
G1 X127.736 Y94.314 E4.84892
G1 X128.794 Y94.643 E4.87656
G1 X129.208 Y94.803 E4.88763
G1 X129.861 Y95.095 E4.90548
G1 X130.439 Y95.396 E4.92173
G1 X131.063 Y95.783 E4.94005
G1 X131.722 Y96.25 E4.9602
G1 X132.223 Y96.653 E4.97624
G1 X132.786 Y97.183 E4.99553
G1 X133.254 Y97.678 E5.01252
G1 X133.679 Y98.18 E5.02893
G1 X134.004 Y98.619 E5.04255
G1 X134.502 Y99.397 E5.06559
G1 X135.006 Y100.36 E5.09271
G1 X135.183 Y100.761 E5.10364
G1 X135.415 Y101.369 E5.11987
G1 X135.548 Y101.776 E5.13056
G1 X135.726 Y102.426 E5.14737
G1 X135.821 Y102.858 E5.1584
G1 X135.924 Y103.47 E5.17388
G1 X135.974 Y103.887 E5.18436
G1 X136.023 Y104.574 E5.20154
G1 X136.032 Y105.01 E5.21242
G1 X136.014 Y105.653 E5.22846
G1 X135.963 Y106.286 E5.24431
G1 X135.883 Y106.829 E5.258
G1 X135.671 Y107.806 E5.28294
G1 X135.499 Y108.407 E5.29853
G1 X135.257 Y109.078 E5.31632
G1 X135.004 Y109.666 E5.33229
G1 X134.768 Y110.128 E5.34523
G1 X134.404 Y110.765 E5.36353
G1 X134.173 Y111.127 E5.37424
G1 X133.761 Y111.708 E5.39201
G1 X133.364 Y112.204 E5.40786
G1 X133 Y112.601 E5.4213
G1 X132.325 Y113.251 E5.44467
G1 X131.82 Y113.679 E5.46118
G1 X131.381 Y114.004 E5.47481
G1 X130.559 Y114.53 E5.49915
G1 X129.999 Y114.841 E5.51513
G1 X129.509 Y115.073 E5.52866
G1 X128.619 Y115.423 E5.55251
G1 X128.061 Y115.605 E5.56715
G1 X127.464 Y115.757 E5.58252
G1 X126.525 Y115.925 E5.60632
G1 X125.439 Y116.021 E5.63351
G1 X124.379 Y116.013 E5.65995
G1 X123.94 Y115.98 E5.67094
G1 X123.266 Y115.894 E5.68789
G1 X122.836 Y115.817 E5.69878
G1 X122.232 Y115.678 E5.71424
G1 X121.199 Y115.355 E5.74124
G1 X120.79 Y115.196 E5.75219
G1 X120.205 Y114.934 E5.76818
G1 X119.822 Y114.739 E5.7789
G1 X119.235 Y114.404 E5.79576
G1 X118.869 Y114.171 E5.80658
G1 X118.29 Y113.76 E5.82429
G1 X117.783 Y113.353 E5.84051
G1 X117.409 Y113.011 E5.85315
G1 X116.746 Y112.322 E5.87701
G1 X116.321 Y111.82 E5.89341
G1 X115.994 Y111.378 E5.90713
G1 X115.495 Y110.598 E5.93023
G1 X114.99 Y109.632 E5.95742
G1 X114.811 Y109.225 E5.96851
G1 X114.583 Y108.625 E5.98452
G1 X114.452 Y108.224 E5.99504
G1 X114.274 Y107.574 E6.01185
G1 X114.179 Y107.14 E6.02294
G1 X114.076 Y106.526 E6.03847
G1 X114.026 Y106.112 E6.04887
G1 X113.977 Y105.427 E6.066
G1 X113.968 Y104.99 E6.0769
G1 X113.986 Y104.347 E6.09295
G1 X114.038 Y103.704 E6.10904
G1 X114.114 Y103.18 E6.12225
G1 X114.322 Y102.23 E6.14651
G1 X114.645 Y101.199 E6.17346
G1 X114.803 Y100.792 E6.18435
G1 X115.065 Y100.207 E6.20034
G1 X115.259 Y99.825 E6.21103
G1 X115.595 Y99.236 E6.22794
G1 X115.829 Y98.869 E6.2388
G1 X116.24 Y98.29 E6.25651
G1 X116.654 Y97.777 E6.27296
G1 X117.183 Y97.215 E6.29221
G1 X117.646 Y96.778 E6.30809
G1 X118.487 Y96.098 E6.33507
G1 X118.846 Y95.846 E6.34601
G1 X119.387 Y95.505 E6.36196
G1 X119.763 Y95.293 E6.37273
G1 X120.352 Y94.998 E6.38916
G1 X120.743 Y94.825 E6.39983
G1 X121.349 Y94.592 E6.41603
G1 X121.765 Y94.455 E6.42695
G1 X122.495 Y94.255 E6.44583
G1 X123.099 Y94.127 E6.46123
G1 X123.62 Y94.052 E6.47436
G1 X124.555 Y93.978 E6.49776
G1 X124.967 Y93.968 E6.50804
G1 X125.578 Y93.982 E6.52329
G1 X126.215 Y94.029 E6.53922
G1 F2100 E5.73922
;MESH:Stunning Kieran (1).stl
G0 F3300 X125.77 Y97.727
G0 X125.584 Y98.998
G0 X126.176 Y99.066
;TYPE:WALL-INNER
G1 F2100 E6.53922
G1 F1800 X126.743 Y99.206 E6.55379
G1 X127.301 Y99.405 E6.56857
G1 X127.839 Y99.658 E6.5834
G1 X128.364 Y99.972 E6.59866
G1 X128.834 Y100.32 E6.61324
G1 X129.277 Y100.723 E6.62818
G1 X129.675 Y101.16 E6.64293
G1 X130.036 Y101.649 E6.65809
G1 X130.332 Y102.143 E6.67246
G1 X130.59 Y102.688 E6.6875
G1 X130.79 Y103.246 E6.70228
G1 X130.931 Y103.813 E6.71686
G1 X131.02 Y104.409 E6.73189
G1 X131.05 Y104.991 E6.74643
G1 X131.021 Y105.584 E6.76124
G1 X130.934 Y106.176 E6.77616
G1 X130.794 Y106.743 E6.79073
G1 X130.592 Y107.309 E6.80572
G1 X130.332 Y107.857 E6.82085
G1 X130.036 Y108.351 E6.83522
G1 X129.675 Y108.84 E6.85038
G1 X129.277 Y109.277 E6.86513
G1 X128.84 Y109.675 E6.87987
G1 X128.354 Y110.034 E6.89494
G1 X127.857 Y110.332 E6.9094
G1 X127.321 Y110.585 E6.92418
G1 X126.755 Y110.79 E6.9392
G1 X126.187 Y110.931 E6.9538
G1 X125.586 Y111.02 E6.96895
G1 X125 Y111.05 E6.98359
G1 X124.414 Y111.02 E6.99823
G1 X123.813 Y110.931 E7.01338
G1 X123.246 Y110.79 E7.02796
G1 X122.688 Y110.59 E7.04275
G1 X122.143 Y110.332 E7.05779
G1 X121.646 Y110.034 E7.07224
G1 X121.16 Y109.675 E7.08731
G1 X120.723 Y109.277 E7.10206
G1 X120.325 Y108.84 E7.1168
G1 X119.964 Y108.351 E7.13197
G1 X119.668 Y107.857 E7.14633
G1 X119.41 Y107.312 E7.16137
G1 X119.21 Y106.754 E7.17616
G1 X119.069 Y106.187 E7.19073
G1 X118.98 Y105.592 E7.20574
G1 X118.951 Y104.998 E7.22058
G1 X118.979 Y104.415 E7.23514
G1 X119.069 Y103.813 E7.25032
G1 X119.21 Y103.246 E7.26489
G1 X119.41 Y102.688 E7.27968
G1 X119.668 Y102.143 E7.29472
G1 X119.964 Y101.649 E7.30909
G1 X120.325 Y101.16 E7.32425
G1 X120.723 Y100.723 E7.33899
G1 X121.159 Y100.327 E7.35369
G1 X121.627 Y99.978 E7.36825
G1 X122.132 Y99.675 E7.38294
G1 X122.681 Y99.413 E7.39812
G1 X123.224 Y99.218 E7.41251
G1 X123.82 Y99.068 E7.42784
G1 X124.4 Y98.983 E7.44246
G1 X124.981 Y98.952 E7.45698
G1 X125.585 Y98.979 E7.47206
G1 X126.176 Y99.066 E7.48696
G0 F3300 X126.157 Y99.164
G0 X123.107 Y103.992
G0 X122.866 Y104.791
G0 X122.948 Y105.625
G0 X123.346 Y106.364
G0 X124.362 Y107.11
G0 X124.39 Y107.015
G1 F1800 X124.798 Y107.095 E7.49733
G1 X125.21 Y107.095 E7.50761
G1 X125.611 Y107.015 E7.51781
G1 X125.993 Y106.856 E7.52813
G1 X126.338 Y106.624 E7.5385
G1 X126.627 Y106.336 E7.54868
G1 X126.857 Y105.992 E7.559
G1 X127.016 Y105.607 E7.56939
G1 X127.095 Y105.205 E7.57961
G1 X127.095 Y104.79 E7.58996
G1 X127.013 Y104.384 E7.60029
G1 X126.855 Y104.005 E7.61054
G1 X126.626 Y103.663 E7.6208
G1 X126.333 Y103.371 E7.63112
G1 X125.99 Y103.142 E7.64141
G1 X125.61 Y102.985 E7.65167
G1 X125.202 Y102.905 E7.66204
G1 X124.79 Y102.905 E7.67232
G1 X124.388 Y102.986 E7.68255
G1 X124.005 Y103.145 E7.69289
G1 X123.661 Y103.376 E7.70323
G1 X123.371 Y103.667 E7.71347
G1 X123.142 Y104.01 E7.72376
G1 X122.985 Y104.389 E7.734
G1 X122.905 Y104.794 E7.74429
G1 X122.905 Y105.207 E7.7546
G1 X122.986 Y105.614 E7.76495
G1 X123.144 Y105.993 E7.77519
G1 X123.376 Y106.339 E7.78558
G1 X123.665 Y106.627 E7.79576
G1 X124.009 Y106.857 E7.80608
G1 X124.39 Y107.015 E7.81637
G0 F3300 X124.362 Y107.11
G0 X126.081 Y106.917
G0 X125.803 Y106.502
;TYPE:WALL-OUTER
G1 F1800 X126.083 Y106.314 E7.82478
G1 X126.316 Y106.081 E7.833
G1 X126.502 Y105.803 E7.84135
G1 X126.631 Y105.491 E7.84977
G1 X126.695 Y105.166 E7.85803
G1 X126.695 Y104.83 E7.86641
G1 X126.629 Y104.502 E7.87476
G1 X126.501 Y104.195 E7.88306
G1 X126.316 Y103.919 E7.89135
G1 X126.078 Y103.682 E7.89972
G1 X125.801 Y103.497 E7.90803
G1 X125.494 Y103.37 E7.91632
G1 X125.163 Y103.305 E7.92474
G1 X124.83 Y103.305 E7.93304
G1 X124.505 Y103.37 E7.94131
G1 X124.195 Y103.499 E7.94969
G1 X123.917 Y103.686 E7.95804
G1 X123.682 Y103.922 E7.96635
G1 X123.497 Y104.199 E7.97466
G1 X123.37 Y104.506 E7.98295
G1 X123.305 Y104.833 E7.99126
G1 X123.305 Y105.167 E7.9996
G1 X123.371 Y105.497 E8.00799
G1 X123.498 Y105.803 E8.01626
G1 X123.686 Y106.083 E8.02467
G1 X123.92 Y106.316 E8.03291
G1 X124.199 Y106.503 E8.04128
G1 X124.506 Y106.63 E8.04957
G1 X124.837 Y106.695 E8.05799
G1 X125.17 Y106.695 E8.06629
G1 X125.494 Y106.63 E8.07454
